src/icons/sun.svg

<svg xmlns="http://www.w3.org/2000/svg" viewBox="0 0 24 24">
  <title>sun icon</title>
  <path d="M32,14H27.033c-2,1.769-.779,4,.967,4h4.967C34.966,16.231,33.746,14,32,14Z" />
  <g fill="none" stroke-miterlimit="10">
    <path d="M17.172,10.111a6,6,0,1,0,4.715,4.715A6.01,6.01,0,0,0,17.172,10.111Z" stroke="none"/>
    <path d="M 15.99852275848389 13.99979972839355 C 15.40029907226563 13.99979972839355 14.83786392211914 14.26465797424316 14.45541763305664 14.72645950317383 C 14.18128776550293 15.05748176574707 13.88667678833008 15.62165832519531 14.04035758972168 16.43178939819336 C 14.1787109375 17.16349411010742 14.83581733703613 17.82003402709961 15.56771087646484 17.958740234375 C 15.71307563781738 17.98624801635742 15.85765266418457 18.00020027160645 15.99740505218506 18.00020027160645 C 16.59555816650391 18.00020027160645 17.15798187255859 17.73542404174805 17.54046440124512 17.27376556396484 C 17.81481742858887 16.94261169433594 18.1097583770752 16.37818908691406 17.95689964294434 15.57052993774414 C 17.81802749633789 14.83748245239258 17.1605224609375 14.17996406555176 16.42829895019531 14.041259765625 C 16.28293609619141 14.01375389099121 16.13835906982422 13.99979972839355 15.99860572814941 13.99979972839355 L 15.99852275848389 13.99979972839355 M 15.99860000610352 9.999795913696289 C 16.38235282897949 9.999801635742188 16.77459716796875 10.03580474853516 17.17200469970703 10.11100006103516 C 19.52100563049316 10.55599975585938 21.44199371337891 12.47699928283691 21.88699340820313 14.82600021362305 C 22.61180877685547 18.65568542480469 19.69624137878418 22.00020408630371 15.99740028381348 22.00020408630371 C 15.61366271972656 22.00020408630371 15.22141265869141 21.96419525146484 14.82400512695313 21.88899993896484 C 12.47600555419922 21.44400024414063 10.55400466918945 19.52299880981445 10.11000442504883 17.17499923706055 C 9.383377075195313 13.34440803527832 12.29961967468262 9.999755859375 15.99860000610352 9.999795913696289 Z" stroke="none" fill="#040505"/>
  </g>
  <rect id="Rectangle_26" data-name="Rectangle 26" width="8" height="4" rx="1.993" transform="translate(26 14)" fill="#040505"/>
  <rect id="Rectangle_27" data-name="Rectangle 27" width="8" height="4" rx="1.993" transform="translate(18 26) rotate(90)" fill="#040505"/>
  <rect id="Rectangle_28" data-name="Rectangle 28" width="8" height="4" rx="1.993" transform="translate(18 -2) rotate(90)" fill="#040505"/>
  <rect id="Rectangle_29" data-name="Rectangle 29" width="8" height="4" rx="1.993" transform="translate(-2 14)" fill="#040505"/>
  <rect id="Rectangle_30" data-name="Rectangle 30" width="6.925" height="3.766" rx="1.883" transform="translate(23.22 6.117) rotate(-45)" fill="#040505"/>
  <rect id="Rectangle_31" data-name="Rectangle 31" width="3.766" height="6.925" rx="1.883" transform="matrix(0.707, -0.707, 0.707, 0.707, 23.22, 25.883)" fill="#040505"/>
  <rect id="Rectangle_32" data-name="Rectangle 32" width="3.766" height="6.925" rx="1.883" transform="translate(1.22 3.883) rotate(-45)" fill="#040505"/>
  <rect id="Rectangle_33" data-name="Rectangle 33" width="6.925" height="3.766" rx="1.883" transform="translate(1.22 28.117) rotate(-45)" fill="#040505"/>
</svg>

<svg xmlns="http://www.w3.org/2000/svg" viewBox="0 0 24 24">
  <title id="title2">sun icon</title>
  <g transform="matrix(.66667 0 0 .66667 1.333 1.333)">
    <path d="M32 14h-4.967c-2 1.769-.779 4 .967 4h4.967c1.999-1.769.779-4-.967-4"/>
    <g fill="none" stroke-miterlimit="10">
      <path d="M17.172 10.111a6 6 0 1 0 4.715 4.715 6.01 6.01 0 0 0-4.715-4.715"/>
      <path fill="#040505" d="M15.999 14c-.599 0-1.161.265-1.544.726-.274.331-.568.896-.415 1.706.139.731.796 1.388 1.528 1.527q.219.04.43.041c.598 0 1.16-.265 1.542-.726.275-.331.57-.896.417-1.703-.139-.734-.796-1.391-1.529-1.53a2.3 2.3 0 0 0-.43-.041m0-4q.577 0 1.174.111c2.349.445 4.27 2.366 4.715 4.715A6.006 6.006 0 0 1 15.997 22q-.576 0-1.173-.111c-2.348-.445-4.27-2.366-4.714-4.714A6.005 6.005 0 0 1 15.999 10"/>
    </g>
    <rect width="8" height="4" fill="#040505" data-name="Rectangle 26" rx="1.993" transform="translate(26 14)"/>
    <rect width="8" height="4" fill="#040505" data-name="Rectangle 27" rx="1.993" transform="rotate(90 -4 22)"/>
    <rect width="8" height="4" fill="#040505" data-name="Rectangle 28" rx="1.993" transform="rotate(90 10 8)"/>
    <rect width="8" height="4" fill="#040505" data-name="Rectangle 29" rx="1.993" transform="translate(-2 14)"/>
    <rect width="6.925" height="3.766" fill="#040505" data-name="Rectangle 30" rx="1.883" transform="rotate(-45 18.994 -24.97)"/>
    <rect width="3.766" height="6.925" fill="#040505" data-name="Rectangle 31" rx="1.883" transform="rotate(-45 42.86 -15.08)"/>
    <rect width="3.766" height="6.925" fill="#040505" data-name="Rectangle 32" rx="1.883" transform="rotate(-45 5.297 .469)"/>
    <rect width="6.925" height="3.766" fill="#040505" data-name="Rectangle 33" rx="1.883" transform="rotate(-45 34.55 12.586)"/>
  </g>
</svg>
